X:130
T:Sjömansvisa.
S:Efter sjökapten N. P. Ahlström, Klintehamn.
M:C
L:1/8
K:D
F|D E F G A2 F d|B> A A ^G A2 z A|
w:När vi pas-se-rat Ska-gen, så få vi Nord-sjön fatt. Där
d c B A B2 B c|d> d c c B2 z A|
w:blå-ser star-ka stor-mar så dag så väl som natt. Där
A> G F A d2 (DF)|G F E D B2 z A|
w:ma-nar vi vårt lod ock_ ser, vad grund vi få. Strax
B> A B c d2 (AG)|F> F G E D2 z|]
w:sä-ger vår kap-ten det_ stäl-le, där vi stå.
